svg/skip.svg

<?xml version="1.0" encoding="UTF-8"?>
<svg xmlns="http://www.w3.org/2000/svg" xmlns:xlink="http://www.w3.org/1999/xlink" width="32" height="32" viewBox="0 0 32 32">
<path fill-rule="nonzero" fill="rgb(0%, 0%, 0%)" fill-opacity="1" d="M 6.738281 9.414062 C 5.074219 8.460938 3 9.664062 3 11.585938 L 3 22.414062 C 3 24.335938 5.074219 25.539062 6.738281 24.585938 L 16 19.292969 L 16 22.414062 C 16 24.335938 18.074219 25.539062 19.738281 24.585938 L 29.21875 19.171875 C 30.898438 18.210938 30.898438 15.789062 29.21875 14.828125 L 19.738281 9.414062 C 18.074219 8.460938 16 9.667969 16 11.585938 L 16 14.703125 Z M 6.738281 9.414062 "/>
</svg>

<svg role="img" viewBox="0 0 32 32" height="32" width="32" xmlns="http://www.w3.org/2000/svg"><path d="M6.738 9.414C5.074 8.461 3 9.664 3 11.586v10.828c0 1.922 2.074 3.125 3.738 2.172L16 19.293v3.121c0 1.922 2.074 3.125 3.738 2.172l9.48-5.414c1.68-.961 1.68-3.383 0-4.344l-9.48-5.414C18.074 8.461 16 9.668 16 11.586v3.117Zm0 0"/></svg>
